justvector/posterous.svg

<?xml version="1.0" encoding="iso-8859-1"?>
<!-- Generator: Adobe Illustrator 15.0.0, SVG Export Plug-In . SVG Version: 6.00 Build 0)  -->
<!DOCTYPE svg PUBLIC "-//W3C//DTD SVG 1.1//EN" "http://www.w3.org/Graphics/SVG/1.1/DTD/svg11.dtd">
<svg version="1.1" id="Icons" xmlns="http://www.w3.org/2000/svg" xmlns:xlink="http://www.w3.org/1999/xlink" x="0px" y="0px"
	 width="100px" height="100px" viewBox="0 0 100 100" style="enable-background:new 0 0 100 100;" xml:space="preserve">
<path id="Posterous" d="M30.757,95V60.946l0.265-0.632h0.986l0.185,0.312c3.69,6.073,10.861,9.701,19.188,9.701
	C65.625,70.327,80,59.923,80,36.681C80,18.023,69.052,5,53.369,5c-9.882,0-17.575,4.131-22.235,11.953l-0.441,0.304h-0.955
	L29.081,6.318H20c0.272,6.184,0.505,12.424,0.505,20.199V95H30.757z M30.757,32.453c0-1.246,0.265-2.765,0.81-4.753
	c2.109-8.669,9.602-14.727,18.225-14.727c11.598,0,19.693,9.965,19.693,24.234c0,15.356-7.887,25.281-20.094,25.281
	c-8.599,0-15.875-5.643-18.081-14.04c-0.376-1.374-0.553-2.94-0.553-4.922V32.453z"/>
</svg>

<?xml version="1.0" encoding="UTF-8" standalone="no"?>
<!DOCTYPE svg PUBLIC "-//W3C//DTD SVG 1.1//EN" "http://www.w3.org/Graphics/SVG/1.1/DTD/svg11.dtd">
<svg width="100%" height="100%" viewBox="0 0 100 100" version="1.1" xmlns="http://www.w3.org/2000/svg" xmlns:xlink="http://www.w3.org/1999/xlink" xml:space="preserve" xmlns:serif="http://www.serif.com/" style="fill-rule:evenodd;clip-rule:evenodd;stroke-linejoin:round;stroke-miterlimit:2;">
    <path id="Posterous" d="M30.757,95L30.757,60.946L31.022,60.314L32.008,60.314L32.193,60.626C35.883,66.699 43.054,70.327 51.381,70.327C65.625,70.327 80,59.923 80,36.681C80,18.023 69.052,5 53.369,5C43.487,5 35.794,9.131 31.134,16.953L30.693,17.257L29.738,17.257L29.081,6.318L-1,6.318C-0.728,12.502 -0.495,18.742 -0.495,26.517L-0.495,95L30.757,95ZM30.757,32.453C30.757,31.207 31.022,29.688 31.567,27.7C33.676,19.031 41.169,12.973 49.792,12.973C61.39,12.973 69.485,22.938 69.485,37.207C69.485,52.563 61.598,62.488 49.391,62.488C40.792,62.488 33.516,56.845 31.31,48.448C30.934,47.074 30.757,45.508 30.757,43.526L30.757,32.453Z" style="fill-rule:nonzero;"/>
</svg>
